!!!COM: Richard Wagner
!!!CNT: Deutsch
!!!TXO: Deutsch
!!!OTL: Mein Ruh ist hin (Gretchen am Spinnrade)
!!!LYR: Goethe
!!!OPR: Sieben Kompositionen zu Goethes Faust
!!!OPS: Op. 5
!!!ONM: No. 6
!!!ENC: Ben Fuhrman
!!!YOR: IMSLP, no information given on the edition
!!!YOR: http://imslp.org/wiki/7_Kompositionen_zu_Goethes_Faust,_WWV_15_%28Wagner,_Richard%29
!!!ODT: 1831
!!NB: Only vocal melody encoded.
!!NB: First instance of melodic material only encoded.
!!created: 2/9/10 3:13PM
!!proofed and posted: 2/9/10 3:13PM
**kern	**silbe
*clef G2	*
*k[b-e-]	*
*M6/8	*
*MM[Leidenschaftlich, doch nicht zu schnell]	*
=3	=3
4r	.
8r	.
4r	.
{16g	{Mei-
16a	-ne
=4	=4
4b-	Ruh
8a	ist
8g	hin,
8r	.
(16a	mein
16b-)	|
=5	=5
4cc	Herz
8dd	ist
4ee-	schwer;
8ee-	ich
=6	=6
8ee-	fin-
8dd	-de
8cc	sie
8b-	nim-
8a	-mer
8g	und
=7	=7
4b-	nim-
8a	-mer
8g}	mehr.}
8r	.
{16a	{Wo
16b-	ich
=8	=8
4ee-	ihn
8dd	nicht
4cc	hab'
8ee-	ist
=9	=9
4dd	mir
8cc	das
4bn	Grab,
8bn	die
=10	=10
4cc	gan-
8cc#	-ze
4dd	Welt
(16g	ist
16a)	|
=11	=11
4b-	mir
8a	ver-
8g}	-ga2llt.}
8r	.
{8dd	{Mein
=12	=12
8ee-	ar-
8r	.
8ee-	-mer
8dd	Kopf
8r	.
8dd	ist
=13	=13
8cc#	mir
8r	.
8cc#	ver-
8dd	-ru2ckt,
8r	.
8dd	mein
=14	=14
8ee-	ar-
8r	.
8ee-	-mer
8dd	Sinn
8r	.
8dd	ist
=15	=15
4ccn	mir
8b-	zer-
4a}	-stu2ckt.}
8r	.
!! Rest to measure 18
=18	=18
4r	.
8r	.
4r	.
{16g	{Mei-
16a	-ne
=19	=19
4b-	Ruh
8a	ist
8g	hin,
8r	.
(16a	mein
16b-)	|
=20	=20
4cc	Herz
8dd	ist
4ee-	schwer;
8ee-	ich
=21	=21
8ee-	fin-
8dd	-de
8cc	sie
8b-	nim-
8a	-mer
8g	und
=22	=22
4b-	nim-
8a	-mer
4a}	mehr.}
{8f	{Nach
=23	=23
4ff	ihm
8ee-	nur
8dd	schau'
8cc	ich
8b-	zum
=24	=24
8.b-	Fen-
16bn	-ster
8cc	hin-
4cc	-aus,
8f	nach
=25	=25
4ff	ihm
8ee-	nur
(8ee-	geh'
8dd)	|
8cc	ich
=26	=26
4cc	aus
8cc#	dem
4dd}	Haus.}
8r	.
=27	=27
8r	.
8r	.
{8d	{Sein
(8d	ho-
8en)	|
8f#	-her
=28	=28
4g	Gang,
(16g	sein'
16a)	|
8.bn	ed-
16a	-le
8g	Ge-
=29	=29
4dd	-stalt,
16bn	sei-
16a	-nes
(8g	Mun-
8a)	|
8bn	-des
=30	=30
8dd	La2ch-
8cc	-eln,
16cc	sei-
16dd	-ner
8.een	Au-
16dd	-gen
8cc	Ge-
=31	=31
4gg}	-walt,}
8r	.
{8gg	{und
8gg	sei-
8gg	-ner
=32	=32
4gg	Re-
8ff	-de
4ee-	Zau-
8dd	-ber-
=33	=33
4cc	-fluss,
(16cc	sein
16dd)	|
4een	Ha2n-
8een	-de-
=34	=34
4ff	-druck,
8ff	und
4ff#	ach
8ff#	sein
=35	=35
[2.gg	Kuss!
=36	=36
4gg]}	|}
8r	.
4r	.
8r	.
!! Rest to measure 40
=40	=40
4r	.
8r	.
4r	.
{16g	{Mei
16a	-ne
=41	=41
4b-	Ruh
8a	ist
8g	hin,
8r	.
(16g	mein
16b-)	|
=42	=42
4cc	Herz
8dd	ist
4ee-	schwer;
8ee-	ich
=43	=43
8ee-	fin-
8dd	-de
8cc	sie
8b-	nim-
8a	-mer
8g	und
=44	=44
4b-	nim-
8a	-mer
8g}	mehr.}
8r	.
{(16a	{Mein
16b-)	|
=45	=45
4ee-	Bu-
8dd	-sen
4cc	dra2ngt
8dd	sich
=46	=46
(8ee-	nach
8een)	|
8ff	ihm
4ff#}	hin.}
8r	.
=47	=47
{4gg	{Ach,
16.ffn	du2rft'
32ee-	ich
8ee-	fas-
8dd	-sen
8g	und
=48	=48
4dd	hal-
(16ee-	-ten
16dd)	|
4dd	ihn,
8cc	und
=49	=49
4bn	ku2s-
8cc	-sen
4dd	ihn
8b-	so
=50	=50
4cc	wie
8dd	ich
4ee-}	wollt',}
8r	.
=51	=51
{8ee-	{an
8dd	sei-
8cc	-nen
8ee-	Ku2s-
8dd	-sen
8cc	ver-
=52	=52
[4.b-	-ge-
4b-]	|
8a	-hen
=53	=53
4g}	sollt'!}
8r	.
4r	.
8r	.
==	==
*-	*-
